X:564
T:Miss Margaret Graeme of Inchbrakie
R:Strathspey
C:Niel Gow
B:The Athole Collection
M:C
L:1/8
K:G Minor
g|d<G d>c d>G G<f|c<F c>A c>F A<f|d<G d>c d>G G<g|f>dc>A G2G:|
d|g<a b>g a>^fg>d|f>d c<f A<F c>A|g>ab>g a>^fg>d|f<c f>A G2 G>d|
g>ab>g a>^fg>d|f>d c<f A<F c>A|Gdc>A G2G||
